X:1
T:Great King Street
T:Great King Street
T:Handel
C:Handel
L:1/8
Q:1/2=108
M:3/2
K:Bb
V:1 treble 
V:1
 B4 | (d4 c4) B4 | (f4 e4) d4 | c8 F4 | (B4 c4) d4 | G4 A8{GA} | B8 B4 | c3 c d4 B4 | =e8 f4 | %9
 (B4 c4) d4 | A8 G4 | F12 | (f4 e4) d4 | c8 B4 | A8 B4 | c8 d4 | (e4 f4) g4 | d8 c4 | B12 |] %19

